X: 7
T:Lord Wellington
% Nottingham Music Database
S:via PR
M:4/4
L:1/4
K:G
"G"GB/2G/2 D/2G/2B/2G/2|"Am"A/2^G/2A/2B/2 c/2d/2e/2c/2|\
"Am"A/2^G/2A/2B/2 c/2A/2A/2G/2|"D"F/2A/2D/2E/2 F/2G/2A/2F/2|
"G"GB/2G/2 D/2G/2B/2G/2|"Am"A/2^G/2A/2B/2 c/2d/2e/2f/2|\
"G"g/2e/2d/2B/2 "C"c(B/2c/2)|(3"D7"d/2c/2B/2c/2A/2 "G"(B/2G/2)G::
"G"g(b/2g/2) d/2g/2b/2g/2|"G"g/2b/2a/2g/2 "D"f/2d/2d/2e/2|\
"D"f(a/2f/2) d/2f/2a/2f/2|"Em"g/2b/2a/2g/2 "D"f/2d/2e/2f/2|
"G"g3/2b/2 "D"a3/2f/2|"G"g/2b/2a/2g/2 "D"f/2d/2d/2e/2|\
"G"g/2e/2d/2B/2 "C"c(B/2c/2)|(3"D7"d/2c/2B/2c/2A/2 "G"(B/2G/2)G:|


